public/img/alipay.svg

<svg width="75" height="43" viewBox="0 0 75 43" fill="none" xmlns="http://www.w3.org/2000/svg">
<path fill-rule="evenodd" clip-rule="evenodd" d="M75 40.7119C75 41.9788 73.8867 43 72.5051 43H2.49399C1.11313 43 0 41.9788 0 40.7119V2.28893C0 1.02123 1.11313 0 2.49399 0H72.5051C73.8867 0 75 1.02123 75 2.28893V40.7119Z" fill="#F8F8F8"/>
<path d="M17.6121 15C16.1679 15 15 16.0756 15 17.4034V27.597C15 28.9238 16.1679 30 17.6121 30H28.693C30.1357 30 31.3036 28.9239 31.3036 27.597V27.4927C31.2553 27.4741 27.067 25.8667 24.9375 24.9249C23.5015 26.5511 21.649 27.5376 19.7252 27.5376C16.4723 27.5376 15.3683 24.9187 16.9082 23.1945C17.2438 22.8188 17.8155 22.4597 18.7021 22.2587C20.089 21.9452 22.2957 22.4544 24.365 23.0826C24.737 22.4519 25.0503 21.7573 25.2835 21.0177H18.9077V20.4237H22.1955V19.3585H18.2135V18.7639H22.1955V17.2445C22.1955 17.2445 22.1955 16.9885 22.4769 16.9885H24.0844V18.7639H28.0203V19.3585H24.0844V20.4237H27.2971C26.9897 21.5825 26.5227 22.6491 25.9369 23.5854C26.9118 23.91 27.7872 24.2178 28.4398 24.4188C30.6153 25.0886 31.2256 25.1705 31.3043 25.179V17.4035C31.3043 16.0756 30.1357 15.0001 28.693 15.0001H17.6121V15ZM19.4 23.127C19.2597 23.1286 19.1201 23.1356 18.9783 23.1484C18.5714 23.186 17.8066 23.3514 17.3886 23.6916C16.1353 24.6971 16.8852 26.5352 19.4215 26.5352C20.8961 26.5352 22.3692 25.668 23.526 24.2794C22.0344 23.6097 20.7491 23.1127 19.4 23.127Z" fill="#00A1E9"/>
<path d="M59.2639 24.5752L58.5284 26.0529L57.7817 24.5752H57.0529L58.1884 26.6183V28.0434H58.8579V26.6183L58.8616 26.6103L59.9926 24.5752H59.2639ZM53.8784 25.4693L54.3969 26.9076H53.341L53.8784 25.4693ZM54.5568 27.3447L54.8067 28.0432H55.5077L54.1268 24.575H53.5909L52.2145 28.0432H52.917L53.1774 27.3447H54.5568ZM49.3229 26.2332H48.5784V25.0467H49.3229C49.6974 25.0467 49.921 25.3496 49.921 25.6423C49.921 25.9287 49.7117 26.2332 49.3229 26.2332ZM49.3612 24.5752H47.9037V28.0433H48.5784V26.71H49.3612C50.0877 26.71 50.5957 26.2708 50.5957 25.6423C50.5957 25.0138 50.0877 24.5752 49.3612 24.5752V24.5752ZM44.495 28.0434H45.1705V24.5752H44.495V28.0434ZM39.7519 24.5752V28.0435H42.0214V27.5709H40.4259V24.5752H39.7519ZM35.9102 25.4693L36.4288 26.9076H35.3728L35.9102 25.4693ZM36.5886 27.3447L36.8385 28.0432H37.5395L36.1586 24.575H35.6228L34.2471 28.0432H34.9481L35.2092 27.3447H36.5886ZM41.3355 17.7954H38.4431V16.8365H41.7978V16.2392H38.4431V15.0241H36.9481C36.7837 15.0241 36.6517 15.1514 36.6517 15.3079V16.2393H33.3203V16.8365H36.6517V17.7954H33.8403V18.3921H39.4397C39.4397 18.3921 39.129 19.5128 37.5935 20.7173C36.2171 19.7536 35.7571 18.9861 35.7571 18.9861H34.2554C34.8625 19.9604 35.7263 20.7406 36.6562 21.3596C35.8021 21.8729 34.6944 22.3679 33.2617 22.764V23.479C33.2617 23.479 35.4719 23.0934 37.6078 21.9292C39.7467 23.0844 41.8953 23.479 41.8953 23.479V22.8022C40.5204 22.3392 39.4307 21.83 38.5752 21.3389C39.8142 20.4898 40.9002 19.3372 41.3355 17.7954V17.7954ZM50.7323 15.1438H49.2261V16.5992H45.5149V17.1852H49.2261V22.4176C49.2133 22.5375 49.1113 22.6309 48.9829 22.6372H48.2182V23.2435H50.1695C50.4787 23.2318 50.7256 22.9947 50.7323 22.7009V17.1852H51.3432V16.5991H50.7323V15.1438ZM47.557 18.1725C47.5015 18.0686 47.3897 17.997 47.2583 17.9959H46.0043L46.9814 20.843H48.4659L47.557 18.1725ZM43.8511 15.0749L42.1242 18.8539H43.4488V23.3504H44.898V17.3859H44.3727L45.4639 15.075L43.8511 15.0749ZM60.6523 23.1442L60.1232 21.4904C60.0879 21.3849 59.9843 21.3085 59.862 21.3085H58.4586L58.8661 22.5788H57.2165V20.1178H60.4557V19.5323H57.2165V18.3739H60.4557V17.7883H52.3729V18.3739H55.6112V19.5323H52.3729V20.1178H55.6112V22.5788H52.3729V23.1643H60.653L60.6463 23.1442H60.6523ZM54.057 16.3912H58.7738V17.2552H60.4586V16.2316C60.4586 16.2294 60.4586 16.2284 60.4586 16.2257C60.4586 15.9955 60.2635 15.8094 60.0219 15.8057H57.2953V15H55.5317V15.8057H52.3721V17.2552H54.057V16.3912Z" fill="#6A6A6A"/>
</svg>

<svg width="75" height="43" viewBox="0 0 75 43" fill="none" xmlns="http://www.w3.org/2000/svg"><path fill-rule="evenodd" clip-rule="evenodd" d="M75 40.712C75 41.979 73.887 43 72.505 43H2.494C1.114 43 0 41.979 0 40.712V2.289C0 1.02 1.113 0 2.494 0h70.011C73.887 0 75 1.021 75 2.289v38.423z" fill="#F8F8F8"/><path d="M17.612 15C16.168 15 15 16.076 15 17.403v10.194C15 28.924 16.168 30 17.612 30h11.081c1.443 0 2.61-1.076 2.61-2.403v-.104c-.048-.019-4.236-1.626-6.366-2.568-1.436 1.626-3.288 2.613-5.212 2.613-3.253 0-4.357-2.62-2.817-4.343.336-.376.907-.735 1.794-.936 1.387-.314 3.594.195 5.663.824.372-.631.685-1.326.919-2.065h-6.376v-.594h3.287v-1.066h-3.982v-.594h3.982v-1.52s0-.256.282-.256h1.607v1.776h3.936v.595h-3.936v1.065h3.213a11.55 11.55 0 01-1.36 3.161c.975.325 1.85.633 2.503.834 2.175.67 2.786.752 2.864.76v-7.775c0-1.328-1.168-2.404-2.611-2.404h-11.08zm1.788 8.127a6.02 6.02 0 00-.422.021c-.407.038-1.171.203-1.59.544-1.253 1.005-.503 2.843 2.034 2.843 1.474 0 2.947-.867 4.104-2.256-1.492-.67-2.777-1.166-4.126-1.152z" fill="#00A1E9"/><path d="M59.264 24.575l-.736 1.478-.746-1.478h-.73l1.136 2.043v1.425h.67v-1.425l.004-.008 1.13-2.035h-.728zm-5.386.894l.519 1.439H53.34l.537-1.439zm.679 1.876l.25.698h.7l-1.38-3.468h-.536l-1.377 3.468h.703l.26-.698h1.38zm-5.234-1.112h-.745v-1.186h.745c.374 0 .598.303.598.595 0 .287-.21.591-.598.591zm.038-1.658h-1.457v3.468h.674V26.71h.783c.727 0 1.235-.44 1.235-1.068 0-.628-.508-1.067-1.235-1.067zm-4.866 3.468h.675v-3.468h-.675v3.468zm-4.743-3.468v3.469h2.27v-.473h-1.596v-2.996h-.674zm-3.842.894l.519 1.439h-1.056l.537-1.439zm.679 1.876l.25.698h.7l-1.38-3.468h-.536l-1.376 3.468h.701l.261-.698h1.38zm4.747-9.55h-2.893v-.959h3.355v-.597h-3.355v-1.215h-1.495a.29.29 0 00-.296.284v.931H33.32v.598h3.332v.958H33.84v.597h5.6s-.311 1.12-1.846 2.325c-1.377-.963-1.837-1.73-1.837-1.73h-1.502c.607.973 1.471 1.754 2.401 2.373-.854.513-1.962 1.008-3.394 1.404v.715s2.21-.386 4.346-1.55a16.358 16.358 0 004.287 1.55v-.677c-1.375-.463-2.464-.972-3.32-1.463 1.24-.85 2.325-2.002 2.76-3.544zm9.396-2.651h-1.506v1.455h-3.711v.586h3.711v5.233a.251.251 0 01-.243.22h-.765v.605h1.951a.57.57 0 00.563-.542v-5.516h.611V16.6h-.61v-1.455zm-3.175 3.028a.34.34 0 00-.299-.176h-1.254l.977 2.847h1.485l-.909-2.67zm-3.706-3.097l-1.727 3.779h1.325v4.496h1.449v-5.964h-.525l1.09-2.311h-1.612zm16.801 8.07l-.529-1.655a.273.273 0 00-.261-.181h-1.403l.407 1.27h-1.65v-2.461h3.24v-.586h-3.24v-1.158h3.24v-.586h-8.083v.586h3.238v1.158h-3.238v.586h3.238v2.46h-3.238v.586h8.28l-.007-.02h.006zm-6.595-6.754h4.717v.864h1.685v-1.029a.432.432 0 00-.437-.42h-2.727V15h-1.763v.806h-3.16v1.45h1.685v-.865z" fill="#6A6A6A"/></svg>
